svg/colour/44 adelaide.svg

<?xml version="1.0" encoding="UTF-8" standalone="no"?>
<svg
   version="1.1"
   viewBox="0 0 512 512"
   id="svg17432"
   xmlns="http://www.w3.org/2000/svg"
   xmlns:svg="http://www.w3.org/2000/svg">
  <defs
     id="defs17436" />
  <g
     id="g18005"
     transform="matrix(0.08109246,0,0,0.08109246,-2.1123426,122.04266)">
    <path
       style="fill:#017dc7;fill-opacity:1;stroke:none;stroke-width:1px;stroke-linecap:butt;stroke-linejoin:miter;stroke-opacity:1"
       d="m 4598.6311,168.0854 1071.4668,4.8095 1.317,2425.8109 z"
       id="path3318" />
    <path
       style="fill:#00aeed;fill-opacity:1;stroke:none;stroke-width:1px;stroke-linecap:butt;stroke-linejoin:miter;stroke-opacity:1"
       d="M 1497.4754,168.0854 H 2568.9422 V 2598.7058 Z"
       id="path3304" />
    <path
       style="fill:#0b4c9e;fill-opacity:1;stroke:none;stroke-width:1px;stroke-linecap:butt;stroke-linejoin:miter;stroke-opacity:1"
       d="M 1497.4754,168.0854 149.62333,2598.7058 v -1076.777 z"
       id="path1787" />
    <path
       style="fill:#017dc7;fill-opacity:1;stroke:none;stroke-width:1px;stroke-linecap:butt;stroke-linejoin:miter;stroke-opacity:1"
       d="M 1497.4754,168.0854 2568.9422,2598.7058 H 149.62333 Z"
       id="path3302" />
    <path
       style="fill:#017dc7;fill-opacity:1;stroke:none;stroke-width:1px;stroke-linecap:butt;stroke-linejoin:miter;stroke-opacity:1"
       d="m 2568.9422,1521.9288 h 537.3358 l -537.3358,1076.777 z"
       id="path3306" />
    <path
       style="fill:#00aeed;fill-opacity:1;stroke:none;stroke-width:1px;stroke-linecap:butt;stroke-linejoin:miter;stroke-opacity:1"
       d="m 3106.278,1521.9288 v 1076.777 h -537.3358 z"
       id="path3308" />
    <path
       style="fill:#0b4c9e;fill-opacity:1;stroke:none;stroke-width:1px;stroke-linecap:butt;stroke-linejoin:miter;stroke-opacity:1"
       d="M 1497.4754,2598.7058 H 2568.9422 L 1497.9019,3135.7321 Z"
       id="path3310" />
    <path
       style="fill:#017dc7;fill-opacity:1;stroke:none;stroke-width:1px;stroke-linecap:butt;stroke-linejoin:miter;stroke-opacity:1"
       d="m 2568.9422,2598.7058 v 537.0263 H 1497.4754 Z"
       id="path3312" />
    <path
       style="fill:#0b4c9e;fill-opacity:1;stroke:none;stroke-width:1px;stroke-linecap:butt;stroke-linejoin:miter;stroke-opacity:1"
       d="m 3250.779,1521.9288 v 1076.777 h 2420.6359 z"
       id="path3314" />
    <path
       style="fill:#00aeed;fill-opacity:1;stroke:none;stroke-width:1px;stroke-linecap:butt;stroke-linejoin:miter;stroke-opacity:1"
       d="M 5670.0979,2598.7058 3250.779,1521.9288 4598.6311,168.0854 5671.4149,2598.7058 Z"
       id="path3316" />
    <path
       style="fill:#00aeed;fill-opacity:1;stroke:none;stroke-width:1px;stroke-linecap:butt;stroke-linejoin:miter;stroke-opacity:1"
       d="m 5671.4149,1521.9288 h 544.8395 l -544.8395,1076.777 z"
       id="path3320" />
    <path
       style="fill:#017dc7;fill-opacity:1;stroke:none;stroke-width:1px;stroke-linecap:butt;stroke-linejoin:miter;stroke-opacity:1"
       d="m 6216.2544,1521.9288 v 1076.777 h -544.8395 z"
       id="path3322" />
    <path
       style="fill:#017dc7;fill-opacity:1;stroke:none;stroke-width:1px;stroke-linecap:butt;stroke-linejoin:miter;stroke-opacity:1"
       d="M 4598.6311,2598.7058 H 5671.4149 L 4598.6311,3135.7321 Z"
       id="path3324" />
    <path
       style="fill:#0b4c9e;fill-opacity:1;stroke:none;stroke-width:1px;stroke-linecap:butt;stroke-linejoin:miter;stroke-opacity:1"
       d="m 5671.4149,2598.7058 v 537.0263 H 4598.6311 Z"
       id="path3326" />
  </g>
</svg>

<svg viewBox="0 0 512 512" xmlns="http://www.w3.org/2000/svg">
    <path style="fill:#017dc7;fill-opacity:1;stroke:none;stroke-width:1px;stroke-linecap:butt;stroke-linejoin:miter;stroke-opacity:1" d="m4598.631 168.085 1071.467 4.81 1.317 2425.81z" transform="matrix(.0811 0 0 .0811 -2.112 122.043)"/>
    <path style="fill:#00aeed;fill-opacity:1;stroke:none;stroke-width:1px;stroke-linecap:butt;stroke-linejoin:miter;stroke-opacity:1" d="M1497.475 168.085h1071.467v2430.62z" transform="matrix(.0811 0 0 .0811 -2.112 122.043)"/>
    <path style="fill:#0b4c9e;fill-opacity:1;stroke:none;stroke-width:1px;stroke-linecap:butt;stroke-linejoin:miter;stroke-opacity:1" d="M1497.475 168.085 149.623 2598.705V1521.93z" transform="matrix(.0811 0 0 .0811 -2.112 122.043)"/>
    <path style="fill:#017dc7;fill-opacity:1;stroke:none;stroke-width:1px;stroke-linecap:butt;stroke-linejoin:miter;stroke-opacity:1" d="m1497.475 168.085 1071.467 2430.62H149.623zM2568.942 1521.929h537.336l-537.336 1076.777z" transform="matrix(.0811 0 0 .0811 -2.112 122.043)"/>
    <path style="fill:#00aeed;fill-opacity:1;stroke:none;stroke-width:1px;stroke-linecap:butt;stroke-linejoin:miter;stroke-opacity:1" d="M3106.278 1521.929v1076.777h-537.336z" transform="matrix(.0811 0 0 .0811 -2.112 122.043)"/>
    <path style="fill:#0b4c9e;fill-opacity:1;stroke:none;stroke-width:1px;stroke-linecap:butt;stroke-linejoin:miter;stroke-opacity:1" d="M1497.475 2598.706h1071.467l-1071.04 537.026z" transform="matrix(.0811 0 0 .0811 -2.112 122.043)"/>
    <path style="fill:#017dc7;fill-opacity:1;stroke:none;stroke-width:1px;stroke-linecap:butt;stroke-linejoin:miter;stroke-opacity:1" d="M2568.942 2598.706v537.026H1497.475z" transform="matrix(.0811 0 0 .0811 -2.112 122.043)"/>
    <path style="fill:#0b4c9e;fill-opacity:1;stroke:none;stroke-width:1px;stroke-linecap:butt;stroke-linejoin:miter;stroke-opacity:1" d="M3250.779 1521.929v1076.777h2420.636z" transform="matrix(.0811 0 0 .0811 -2.112 122.043)"/>
    <path style="fill:#00aeed;fill-opacity:1;stroke:none;stroke-width:1px;stroke-linecap:butt;stroke-linejoin:miter;stroke-opacity:1" d="M5670.098 2598.706 3250.779 1521.929 4598.631 168.085l1072.784 2430.62z" transform="matrix(.0811 0 0 .0811 -2.112 122.043)"/>
    <path style="fill:#00aeed;fill-opacity:1;stroke:none;stroke-width:1px;stroke-linecap:butt;stroke-linejoin:miter;stroke-opacity:1" d="M5671.415 1521.929h544.84l-544.84 1076.777z" transform="matrix(.0811 0 0 .0811 -2.112 122.043)"/>
    <path style="fill:#017dc7;fill-opacity:1;stroke:none;stroke-width:1px;stroke-linecap:butt;stroke-linejoin:miter;stroke-opacity:1" d="M6216.254 1521.929v1076.777h-544.84zM4598.631 2598.706h1072.784L4598.63 3135.732z" transform="matrix(.0811 0 0 .0811 -2.112 122.043)"/>
    <path style="fill:#0b4c9e;fill-opacity:1;stroke:none;stroke-width:1px;stroke-linecap:butt;stroke-linejoin:miter;stroke-opacity:1" d="M5671.415 2598.706v537.026H4598.63z" transform="matrix(.0811 0 0 .0811 -2.112 122.043)"/>
</svg>
